packages/symbols/svgs/solid/trash-can-solid.svg

<svg width="16" height="16" viewBox="0 0 16 16" fill="none" xmlns="http://www.w3.org/2000/svg">
<g clip-path="url(#clip0_1191_3785)">
<path fill-rule="evenodd" clip-rule="evenodd" d="M12 3H15C15.2652 3 15.5196 3.10536 15.7071 3.29289C15.8946 3.48043 16 3.73478 16 4C16 4.26522 15.8946 4.51957 15.7071 4.70711C15.5196 4.89464 15.2652 5 15 5H1C0.734784 5 0.48043 4.89464 0.292893 4.70711C0.105357 4.51957 0 4.26522 0 4C0 3.73478 0.105357 3.48043 0.292893 3.29289C0.48043 3.10536 0.734784 3 1 3H4V1C4 0.734784 4.10536 0.48043 4.29289 0.292893C4.48043 0.105357 4.73478 0 5 0L11 0C11.2652 0 11.5196 0.105357 11.7071 0.292893C11.8946 0.48043 12 0.734784 12 1V3ZM6 2V3H10V2H6ZM2.50499 15.1L2.05499 7H13.95L13.5 15.1C13.4752 15.3467 13.3597 15.5753 13.1758 15.7416C12.992 15.9079 12.7529 16 12.505 16H3.50499C3.25623 16.0012 3.01593 15.9097 2.83102 15.7433C2.64611 15.5769 2.52987 15.3475 2.50499 15.1Z" fill="black"/>
</g>
<defs>
<clipPath id="clip0_1191_3785">
<rect width="16" height="16" fill="white"/>
</clipPath>
</defs>
</svg>

<svg width="16" height="16" viewBox="0 0 16 16" xmlns="http://www.w3.org/2000/svg"><g clip-path="url(#a)"><path fill-rule="evenodd" clip-rule="evenodd" d="M12 3h3a1 1 0 1 1 0 2H1a1 1 0 0 1 0-2h3V1a1 1 0 0 1 1-1h6a1 1 0 0 1 1 1v2ZM6 2v1h4V2H6ZM2.505 15.1 2.055 7H13.95l-.45 8.1a1 1 0 0 1-.995.9h-9a1 1 0 0 1-1-.9Z"/></g><defs><clipPath id="a"><path fill="#fff" d="M0 0h16v16H0z"/></clipPath></defs></svg>
